localPackages/DesignSystem/Sources/DesignSystem/Resources/Assets.xcassets/IconSet/ic-lock-open-filled.imageset/ic-lock-open-filled.svg

<svg width="24" height="24" viewBox="0 0 24 24" fill="none" xmlns="http://www.w3.org/2000/svg">
<g id="ic-lock-open-filled">
<path id="Icon" fill-rule="evenodd" clip-rule="evenodd" d="M12 0C8.68629 0 6 2.68629 6 6V7.52878C5.41168 7.56471 4.99429 7.64546 4.63803 7.82698C4.07354 8.1146 3.6146 8.57354 3.32698 9.13803C3 9.77976 3 10.6198 3 12.3V17.7C3 19.3802 3 20.2202 3.32698 20.862C3.6146 21.4265 4.07354 21.8854 4.63803 22.173C5.27976 22.5 6.11984 22.5 7.8 22.5H16.2C17.8802 22.5 18.7202 22.5 19.362 22.173C19.9265 21.8854 20.3854 21.4265 20.673 20.862C21 20.2202 21 19.3802 21 17.7V12.3C21 10.6198 21 9.77976 20.673 9.13803C20.3854 8.57354 19.9265 8.1146 19.362 7.82698C18.7202 7.5 17.8802 7.5 16.2 7.5H7.8C7.69689 7.5 7.59693 7.5 7.5 7.50008V6C7.5 3.51472 9.51472 1.5 12 1.5C13.636 1.5 15.069 2.37261 15.8576 3.68139C16.0714 4.03617 16.5323 4.15048 16.8871 3.9367C17.2419 3.72293 17.3562 3.26202 17.1424 2.90723C16.0937 1.16676 14.1835 0 12 0ZM12.706 14.8238C13.1785 14.5713 13.5 14.0732 13.5 13.5C13.5 12.6716 12.8284 12 12 12C11.1716 12 10.5 12.6716 10.5 13.5C10.5 14.0732 10.8215 14.5713 11.294 14.8238L10.6398 17.4409C10.5688 17.7249 10.7836 18 11.0763 18H12.9237C13.2164 18 13.4312 17.7249 13.3602 17.4409L12.706 14.8238Z" fill="#0F0F0F"/>
</g>
</svg>

<svg xmlns="http://www.w3.org/2000/svg" width="24" height="24" viewBox="0 0 24 24">
  <g class="ic-lock-open-filled">
    <path fill-rule="evenodd" d="M12 0a6 6 0 0 0-6 6v1.529c-.588.036-1.006.116-1.362.298a3 3 0 0 0-1.311 1.311C3 9.78 3 10.62 3 12.3v5.4c0 1.68 0 2.52.327 3.162a3 3 0 0 0 1.311 1.311c.642.327 1.482.327 3.162.327h8.4c1.68 0 2.52 0 3.162-.327a3 3 0 0 0 1.311-1.311C21 20.22 21 19.38 21 17.7v-5.4c0-1.68 0-2.52-.327-3.162a3 3 0 0 0-1.311-1.311C18.72 7.5 17.88 7.5 16.2 7.5H7.5V6a4.5 4.5 0 0 1 8.358-2.319.75.75 0 0 0 1.284-.774A5.997 5.997 0 0 0 12 0Zm.706 14.824a1.5 1.5 0 1 0-1.412 0l-.654 2.617a.45.45 0 0 0 .436.559h1.848a.45.45 0 0 0 .436-.56l-.654-2.616Z" class="Icon"/>
  </g>
</svg>
